X: 11073
T: Duchess Of Yell, The
R: three-two
M: 3/2
K: Emajor
|:B3B AGE2 [B,E]4|[M:4/4]B3B ABBA|Bcef fefg|
B3B AGAB|AGE2 E3B,|CEEG FEFG|AGFE FGE2:|
AGFE BEB,E|E/2E/2E B,E FEFB|AGFE FGEG,|A,B,CE FGAB|
AGFE BE E/2E/2E|cE E/2E/2E Bcef|gecf eBBG|ABce fgcB|
AGFE BEB,E|E/2E/2E B,E FEFB|AGFE FGEB,|CEE/2F/2G EFGB|
AGFE BE E/2E/2E|cE E/2E/2E Bcef|gecf eBBG|ABcd efgf|

